X:666
M:C|
L:1/8
K:C
a|g2ec d2BG|c2GE FDDa|g2ec d2BG|cGAF ECC:|
E/F/G Gc AcGc|FcEc dDDF|EGce FAdf|gedf ecc||

